X:1
T:Title
%%score { ( 1 3 ) | ( 2 4 ) }
L:1/8
Q:1/4=100
M:4/4
K:Db
V:1 treble nm="Grand Piano"
V:3 treble 
V:2 bass 
V:4 bass 
V:1
 [A,DF]3 [A,DF] [A,EA][A,DF][=G,D][_G,CE] | [D-F]3 [DG] F4 | A3 A d[FA][Ec][DB] | %3
w: Thoro~Harris * * * * *|||
 [CA]4[K:bass] [G,CE]4 | [F,D]3[K:treble] [A,DF] [DFA][Fd][Ae][Ad] | d4 c2 B2 | %6
w: |||
 [DFA]3 [A,DF] [Fd]2 [A,DF]2 | [CE]2 G2 F2 E2 | D2 F2 [FA]4 | G2 B2 d4 | ABAF D F2 F | E2 B2 e4 | %12
w: ||||||
 f2 [Ge]2 [Fd][Af][Ae][Ad] | [Ge]2 [Bd]2 B4 | edcB A d2 F | A2 [Ge]2 [Fd]4 |] %16
w: ||||
V:2
 D,3 D, C,D,B,,A,, | z2 B,2 [D,A,D]4 | [F,A,D]3 [E,G,C] [D,G,D][D,F,][G,,G,][G,,F,] | z2 z G A,,4 | %4
 D,3 D, D,[D,A,D][F,_C][F,C] | [G,B,G]4 [G,G]2- [G,DG]2 | D,3 D, [D,A,]2 F,2 | z2 E2 D2 C2 | %8
 [D,F,]2 [D,A,D]2 [D,_C]4 | [G,B,D]2 [G,D]2 [G,B,G]4 | F,G,F,D, A,, D,2 [=D,A,_C] | %11
 [E,A,C]2 [E,=G,D]2 [A,,G,C]4 | [D,F,D]2 [D,A,]2 [D,A,][D,D][E,C][F,_C] | %13
 [G,B,]2 [G,D]2[K:treble] [G,DG]4 | [G,B,G][G,B,F][=G,D_F][G,DF] [A,D=F] [A,DF]2[K:bass] [A,_C=D] | %15
 [A,CE]2 [A,,A,]2 [D,A,]4 |] %16
V:3
 x8 | F,2 z2 z4 | x8 | x4[K:bass] x4 | x3[K:treble] x5 | x8 | x8 | x8 | x8 | x8 | x8 | x8 | x8 | %13
 x8 | x8 | x8 |] %16
V:4
 x8 | D,4 z4 | x8 | [A,,E,]4 z4 | x8 | z4 C2 z2 | x8 | A,6 z2 | x8 | x8 | x8 | x8 | x8 | %13
 x4[K:treble] x4 | x7[K:bass] x | x8 |] %16

